X: 8518
T: Creel Of Turf, The
R: jig
M: 6/8
K: Eminor
|:EBB BAG|FDF AGF|EBB Bcd|AGF GFD|
EBB BAG|FDF ABc|dcd B2d|AGF GFE:|
|:Bee Bee|fef dBA|Bee Bee|fec d2|
Bee Bee|fef dBA|BdB GBd|AGF GF>D>E:|

